svg/section-leader-and-letters.svg

<svg xmlns="http://www.w3.org/2000/svg" width="100" height="100" viewBox="0 0 100 100"><path d="M5.955 98.5v-78.955h19.045v8.183h-10.91v62.59h49v-8.135h8.183v16.317h-65.318zm21.773-19.045v-78.955h46.272l8.422 8.565 1.914 2.058 8.709 8.422v59.91h-65.317zm8.134-8.183h49v-49h-13.59v-13.589h-35.41v62.589zm5.455-38.089v-5.455h38.138v5.455h-38.138zm0 13.589v-5.455h38.138v5.455h-38.138zm0 13.638v-5.455h38.138v5.455h-38.138z"/></svg>

<?xml version="1.0" encoding="utf-8"?>
<!-- Generator: Adobe Illustrator 13.0.0, SVG Export Plug-In . SVG Version: 6.00 Build 14948)  -->
<!DOCTYPE svg PUBLIC "-//W3C//DTD SVG 1.1//EN" "http://www.w3.org/Graphics/SVG/1.1/DTD/svg11.dtd">
<svg version="1.1" id="Layer_1" xmlns="http://www.w3.org/2000/svg" xmlns:xlink="http://www.w3.org/1999/xlink" x="0px" y="0px"
	 width="100px" height="100px" viewBox="0 0 100 100" enable-background="new 0 0 100 100" xml:space="preserve">
<g>
	<path d="M5.955,98.5V19.545H25v8.183H14.09v62.59h49v-8.135h8.183V98.5H5.955z M27.728,79.455V0.5H74l8.422,8.565l1.914,2.058
		l8.709,8.422v59.91H27.728z M35.862,71.272h49v-49h-13.59V8.683h-35.41V71.272z M41.317,33.183v-5.455h38.138v5.455H41.317z
		 M41.317,46.772v-5.455h38.138v5.455H41.317z M41.317,60.41v-5.455h38.138v5.455H41.317z"/>
</g>
</svg>
